X:1
T:[ID 11-17a]
T:[ID 11-17a]
T:Bezeichnung standardisiert: Spiritosa Spiritosa
T:Urheber unbekannt Datum in der hier transkribierten schriftlichen Quelle: vermutlich um 1800
C:Urheber unbekannt
C:Datum in der hier transkribierten schriftlichen Quelle: vermutlich um 1800
L:1/8
M:2/4
K:G
V:1 treble 
V:1
 d | g(f/e/) .d.d | (e/c/)(g/e/) dB | cc (c/A/)(e/c/) |{d} cB z B | A d2 .^c/.B/ | TBA d2- | %7
 d/.^c/.d/.f/ .g.g |{a} g(f/e/) .f.a | B2 z (g/e/) |{d} ^c3/2(B/4c/4) d.a/.f/ | %11
 (f/e/).b/.g/ (g/f/).a/.f/ | (f/e/).b/.g/ (g/f/).a/.f/ | B B2 ^c | d(e/d/) (f/e/).g/.f/ | %15
 (b/a/) a2 .e/.g/ | f(3a/f/d/ B^c | d2 z :: A | d^c/B/ AA | (B/G/)(d/B/) Ad | e>f (g/e/)(b/g/) | %22
{a} Tgf z a | b2 (b/g/)(=c'/b/) | a2 a/f/b/a/ | g2 (g/e/)(a/g/) | f/d/f/a/ ac |{d} TcB z d | %28
 e e2 f | (g/f/)(g/a/) bd | (d/c/).e/.c/ (c/B/).d/.B/ |{c} BA z A/>c/ | B>b (a/f/).d/.c/ | %33
 c/B/ d2 =f/d/ | (e/^f/)(g/e/) (d/c/)(B/A/) | Be/c/ BA | G2 z .d/.B/ | (B/A/).e/.c/ (c/B/).d/.B/ | %38
 (B/A/).e/.c/ (c/B/).d/.B/ | E E2 F | G(A/G/) (B/A/)(c/B/) | (e/d/) d2 .A/.c/ | B(3d/B/G/ ETF | %43
 G2 z :| %44

